X: 43458
T: Ye Pow'rs That O'er Mankind Preside
R: slip jig
M: 9/8
K: Gmajor
M:12/8
D|GAG D2B A2F D2F|ABA D2cB3z2B|A2GF2GA2D^C2B|
A2GF2E D3z2d|ded dcB e2c A2F|D2c cBA F3zED|
G2GA2dB2A G2A|BAG DGF G3z2B|efe B2e f2^dB2^d|
fgf B2f g2eB2B|b2b bag a2f ^d2B|:bag f2^dB2de2[1B:|2 z||

